X:1545
T:Dingle Regatta, The
O:england
M:12/8
E:12
R:slide
K:G
d^cd e2 d BAB d2 B|~A3 AGA B2A G2 z|d^cd e2 d BAB d2B|~A3 B2A G3 z2 z:|
d2d def ~g3 gfg|~a3 aga b2a gfe|d^cd def ~g3 g2 b|a2g f2e def g3:|
.g2 z .d2z BdB G3|~A3 DEF G2 B d2 z|.g2 z .d2z BdB G3|~A3 DEF G2 B G2 z:|
\vskip .5in  Seamus Ennis doesn't play the third part, and plays the second part as follows.
Bdd def g3 faf|g2e dBd e2 A AGA|Bdd def g3 faf|efe def g3 z2:|
